public/piece/fabirovsky/wM.svg

<svg xmlns="http://www.w3.org/2000/svg" width="100" height="100"><style><![CDATA[.B{fill-rule:evenodd}]]></style><defs><clipPath id="A"><path d="M0 0h100v100H0z"/></clipPath></defs><g clip-path="url(#A)"><circle vector-effect="non-scaling-stroke" cx="50" cy="50" r="40" fill="#fff"/><linearGradient id="B" x1="50" y1="25" x2="50" y2="74.923" gradientUnits="userSpaceOnUse"><stop offset="0%" stop-opacity=".1" stop-color="#fff"/><stop offset="100%" stop-opacity=".098" stop-color="#000"/></linearGradient><path d="M50 25c-13.807 0-25 11.193-25 25s11.193 25 25 25 25-11.193 25-25-11.193-25-25-25zm0 5c11.046 0 20 8.954 20 20s-8.954 20-20 20-20-8.954-20-20 8.954-20 20-20z" fill="url(#B)" class="B"/><linearGradient id="C" x1="50" y1="70.078" x2="50" y2="30" gradientUnits="userSpaceOnUse"><stop offset="0%" stop-opacity=".2" stop-color="#fff"/><stop offset="100%" stop-opacity=".098" stop-color="#000"/></linearGradient><path d="M50 30c-11.046 0-20 8.954-20 20s8.954 20 20 20 20-8.954 20-20-8.954-20-20-20zm0 5c8.284 0 15 6.716 15 15s-6.716 15-15 15-15-6.716-15-15 6.716-15 15-15z" fill="url(#C)" class="B"/><linearGradient id="D" x1="50" y1="60.303" x2="50" y2="40" gradientUnits="userSpaceOnUse"><stop offset="0%" stop-opacity=".1" stop-color="#fff"/><stop offset="100%" stop-opacity=".098" stop-color="#000"/></linearGradient><path d="M50 40a10 10 0 1 0 0 20 10 10 0 1 0 0-20h0zm0 5a5 5 0 1 1 0 10 5 5 0 1 1 0-10h0z" fill="url(#D)" class="B"/><linearGradient id="E" x1="50" y1="10" x2="49.735" y2="90" gradientUnits="userSpaceOnUse"><stop offset="0%" stop-opacity=".1" stop-color="#fff"/><stop offset="100%" stop-opacity=".098" stop-color="#000"/></linearGradient><path d="M50 10c-10.61 0-20.783 4.214-28.284 11.716S10 39.39 10 50s4.214 20.783 11.716 28.284S39.39 90 50 90s20.783-4.214 28.284-11.716S90 60.61 90 50s-4.214-20.783-11.716-28.284S60.61 10 50 10h0zm0 5c19.33 0 35 15.67 35 35S69.33 85 50 85 15 69.33 15 50s15.67-35 35-35z" fill="url(#E)" class="B"/><linearGradient id="F" x1="50" y1="84.77" x2="50" y2="15" gradientUnits="userSpaceOnUse"><stop offset="0%" stop-opacity=".1" stop-color="#fff"/><stop offset="100%" stop-opacity=".098" stop-color="#000"/></linearGradient><path d="M50 15c-19.33 0-35 15.67-35 35s15.67 35 35 35 35-15.67 35-35-15.67-35-35-35zm0 10c6.63 0 12.99 2.634 17.678 7.322S75 43.37 75 50s-2.634 12.99-7.322 17.678S56.63 75 50 75s-12.99-2.634-17.678-7.322S25 56.63 25 50s2.634-12.99 7.322-17.678S43.37 25 50 25h0z" fill="url(#F)" class="B"/><linearGradient id="G" x1="50" y1="44.933" x2="50" y2="53.754" gradientUnits="userSpaceOnUse"><stop offset="0%" stop-opacity=".1" stop-color="#fff"/><stop offset="100%" stop-opacity=".098" stop-color="#000"/></linearGradient><circle vector-effect="non-scaling-stroke" cx="50" cy="50" r="5" fill="url(#G)"/><linearGradient id="H" x1="50" y1="35" x2="50" y2="64.594" gradientUnits="userSpaceOnUse"><stop offset="0%" stop-opacity=".1" stop-color="#fff"/><stop offset="100%" stop-opacity=".098" stop-color="#000"/></linearGradient><path d="M50 35a15 15 0 0 0-15 15 15 15 0 0 0 15 15 15 15 0 0 0 15-15 15 15 0 0 0-15-15h0zm0 5a10 10 0 1 1 0 20 10 10 0 1 1 0-20h0z" fill="url(#H)" class="B"/></g></svg>

<?xml version="1.0" standalone="no"?><!-- Generator: Gravit.io --><svg xmlns="http://www.w3.org/2000/svg" xmlns:xlink="http://www.w3.org/1999/xlink" style="isolation:isolate" viewBox="0 0 100 100" width="100" height="100"><defs><clipPath id="_clipPath_ch9CoN7lRZ9sHQBUq5Md5UWFssK7drtM"><rect width="100" height="100"/></clipPath></defs><g clip-path="url(#_clipPath_ch9CoN7lRZ9sHQBUq5Md5UWFssK7drtM)"><circle vector-effect="non-scaling-stroke" cx="50" cy="50" r="39.99999716527998" fill="rgb(255,255,255)"/><linearGradient id="_lgradient_78" x1="0.5000000632579946" y1="-4.1942124551219706e-8" x2="0.5000000632579944" y2="0.9984581988661333" gradientTransform="matrix(50,0,0,50,25,25)" gradientUnits="userSpaceOnUse"><stop offset="0%" stop-opacity="0.1" style="stop-color:rgb(255,255,255)"/><stop offset="100%" stop-opacity="0.09803922" style="stop-color:rgb(0,0,0)"/></linearGradient><path d=" M 50 25 C 36.193 25 25 36.193 25 50 C 25 63.807 36.193 75 50 75 C 63.807 75 75 63.807 75 50 C 75 36.193 63.807 25 50 25 Z  M 50 30 C 61.046 30 70 38.954 70 50 C 70 61.046 61.046 70 50 70 C 38.954 70 30 61.046 30 50 C 30 38.954 38.954 30 50 30 Z " fill-rule="evenodd" fill="url(#_lgradient_78)"/><linearGradient id="_lgradient_79" x1="0.5000000351069954" y1="1.0019595228755098" x2="0.5000000351069955" y2="1.8078669450360962e-8" gradientTransform="matrix(40,0,0,40,30,30)" gradientUnits="userSpaceOnUse"><stop offset="0%" stop-opacity="0.2" style="stop-color:rgb(255,255,255)"/><stop offset="100%" stop-opacity="0.09803922" style="stop-color:rgb(0,0,0)"/></linearGradient><path d=" M 50 30 C 38.954 30 30 38.954 30 50 C 30 61.046 38.954 70 50 70 C 61.046 70 70 61.046 70 50 C 70 38.954 61.046 30 50 30 Z  M 50 35 C 58.284 35 65 41.716 65 50 C 65 58.284 58.284 65 50 65 C 41.716 65 35 58.284 35 50 C 35 41.716 41.716 35 50 35 Z " fill-rule="evenodd" fill="url(#_lgradient_79)"/><linearGradient id="_lgradient_80" x1="0.5000002815100233" y1="1.015129689078797" x2="0.5000002815100234" y2="1.2934000936937196e-7" gradientTransform="matrix(20,0,0,20,40,40)" gradientUnits="userSpaceOnUse"><stop offset="0%" stop-opacity="0.1" style="stop-color:rgb(255,255,255)"/><stop offset="100%" stop-opacity="0.09803922" style="stop-color:rgb(0,0,0)"/></linearGradient><path d=" M 50 40 C 44.477 40 40 44.477 40 50 C 40 55.523 44.477 60 50 60 C 55.523 60 60 55.523 60 50 C 60 44.477 55.523 40 50 40 L 50 40 Z  M 50 45 C 52.761 45 55 47.239 55 50 C 55 52.761 52.761 55 50 55 C 47.239 55 45 52.761 45 50 C 45 47.239 47.239 45 50 45 L 50 45 Z " fill-rule="evenodd" fill="url(#_lgradient_80)"/><linearGradient id="_lgradient_81" x1="0.5000000000000001" y1="-1.2499999355042313e-8" x2="0.49668226250000014" y2="0.9999999999999102" gradientTransform="matrix(80,0,0,80,10,10)" gradientUnits="userSpaceOnUse"><stop offset="0%" stop-opacity="0.1" style="stop-color:rgb(255,255,255)"/><stop offset="100%" stop-opacity="0.09803922" style="stop-color:rgb(0,0,0)"/></linearGradient><path d=" M 50 10 C 39.391 10 29.217 14.214 21.716 21.716 C 14.214 29.217 10 39.391 10 50 C 10 60.609 14.214 70.783 21.716 78.284 C 29.217 85.786 39.391 90 50 90 C 60.609 90 70.783 85.786 78.284 78.284 C 85.786 70.783 90 60.609 90 50 C 90 39.391 85.786 29.217 78.284 21.716 C 70.783 14.214 60.609 10 50 10 L 50 10 Z  M 50 15 C 69.33 15 85 30.67 85 50 C 85 69.33 69.33 85 50 85 C 30.67 85 15 69.33 15 50 C 15 30.67 30.67 15 50 15 Z " fill-rule="evenodd" fill="url(#_lgradient_81)"/><linearGradient id="_lgradient_82" x1="0.5" y1="0.9967140142857144" x2="0.5000000000000001" y2="0" gradientTransform="matrix(70,0,0,70,15,15)" gradientUnits="userSpaceOnUse"><stop offset="0%" stop-opacity="0.1" style="stop-color:rgb(255,255,255)"/><stop offset="100%" stop-opacity="0.09803922" style="stop-color:rgb(0,0,0)"/></linearGradient><path d=" M 50 15 C 30.67 15 15 30.67 15 50 C 15 69.33 30.67 85 50 85 C 69.33 85 85 69.33 85 50 C 85 30.67 69.33 15 50 15 Z  M 50 25 C 56.63 25 62.989 27.634 67.678 32.322 C 72.366 37.011 75 43.37 75 50 C 75 56.63 72.366 62.989 67.678 67.678 C 62.989 72.366 56.63 75 50 75 C 43.37 75 37.011 72.366 32.322 67.678 C 27.634 62.989 25 56.63 25 50 C 25 43.37 27.634 37.011 32.322 32.322 C 37.011 27.634 43.37 25 50 25 L 50 25 Z " fill-rule="evenodd" fill="url(#_lgradient_82)"/><linearGradient id="_lgradient_83" x1="0.5" y1="-0.006736286440500727" x2="0.49999999999999983" y2="0.8753601334359313" gradientTransform="matrix(10,0,0,10,45,45)" gradientUnits="userSpaceOnUse"><stop offset="0%" stop-opacity="0.1" style="stop-color:rgb(255,255,255)"/><stop offset="100%" stop-opacity="0.09803922" style="stop-color:rgb(0,0,0)"/></linearGradient><circle vector-effect="non-scaling-stroke" cx="50" cy="50" r="5.000000354340003" fill="url(#_lgradient_83)"/><linearGradient id="_lgradient_84" x1="0.500000017717001" y1="-9.449067039923875e-8" x2="0.5000000177170008" y2="0.9864764950556202" gradientTransform="matrix(30,0,0,30,35,35)" gradientUnits="userSpaceOnUse"><stop offset="0%" stop-opacity="0.1" style="stop-color:rgb(255,255,255)"/><stop offset="100%" stop-opacity="0.09803922" style="stop-color:rgb(0,0,0)"/></linearGradient><path d=" M 50 35 C 46.022 35 42.206 36.58 39.393 39.393 C 36.58 42.206 35 46.022 35 50 C 35 53.978 36.58 57.794 39.393 60.607 C 42.206 63.42 46.022 65 50 65 C 53.978 65 57.794 63.42 60.607 60.607 C 63.42 57.794 65 53.978 65 50 C 65 46.022 63.42 42.206 60.607 39.393 C 57.794 36.58 53.978 35 50 35 L 50 35 Z  M 50 40 C 55.523 40 60 44.477 60 50 C 60 55.523 55.523 60 50 60 C 44.477 60 40 55.523 40 50 C 40 44.477 44.477 40 50 40 L 50 40 Z " fill-rule="evenodd" fill="url(#_lgradient_84)"/></g></svg>
